packages/tokens/icons/coveoIcon/size24Px.svg

<svg viewBox="0 0 24 24" fill="none" xmlns="http://www.w3.org/2000/svg" width="1em" height="1em"><path d="M19.4529 4.52945C17.6456 2.73248 15.3305 1.72295 12.9544 1.50085C12.6701 1.48066 12.5077 1.8239 12.7107 2.02581L16.5083 5.80146C16.5286 5.82165 16.5083 5.86203 16.4677 5.84184C15.3711 5.0544 14.1323 4.61021 12.8529 4.48906C12.6498 4.46887 12.5483 4.71116 12.6905 4.8525L15.2898 7.43689C15.3102 7.45708 15.2898 7.49747 15.2492 7.47727C14.5384 6.9927 13.7261 6.71003 12.8935 6.62928C12.7514 6.60909 12.6701 6.7908 12.7717 6.87157L17.1785 11.2529C17.28 11.3539 17.4425 11.2731 17.4222 11.1318C17.3409 10.304 17.0566 9.49634 16.5692 8.78967C16.5489 8.76948 16.5895 8.72909 16.6099 8.74929L19.1077 11.2327C19.2499 11.3741 19.4936 11.2529 19.4732 11.0712C19.3717 9.81939 18.9249 8.56757 18.1329 7.49747C18.1126 7.47727 18.1532 7.43689 18.1735 7.45708L21.9711 11.2327C22.1743 11.4346 22.5193 11.2731 22.4992 10.9703C22.2756 8.62815 21.2603 6.32642 19.4529 4.52945ZM4.54703 4.52945C6.35442 2.73248 8.66951 1.72295 11.0455 1.50085C11.3298 1.48066 11.4923 1.8239 11.2892 2.02581L7.49165 5.80146C7.47134 5.82165 7.49165 5.86203 7.53226 5.84184C8.62888 5.0544 9.86766 4.61021 11.1471 4.48906C11.3501 4.46887 11.4517 4.71116 11.3095 4.8525L8.71011 7.43689C8.68982 7.45708 8.71011 7.49747 8.75074 7.47727C9.46151 6.9927 10.2738 6.71003 11.1064 6.62928C11.2486 6.60909 11.3298 6.7908 11.2283 6.87157L6.82149 11.2731C6.71996 11.3741 6.5575 11.2933 6.57781 11.152C6.65902 10.3242 6.94335 9.51653 7.43073 8.80986C7.45104 8.78967 7.41042 8.74929 7.3901 8.76948L4.89226 11.2529C4.75011 11.3942 4.50641 11.2731 4.52672 11.0914C4.64856 9.8194 5.09533 8.56757 5.88734 7.49747C5.90765 7.47727 5.86702 7.43689 5.84673 7.45708L2.02886 11.2327C1.82578 11.4346 1.48055 11.2731 1.50086 10.9703C1.72424 8.62815 2.73963 6.32642 4.54703 4.52945ZM4.54703 19.4705C6.35442 21.2675 8.66951 22.277 11.0455 22.4991C11.3298 22.5193 11.4923 22.1761 11.2892 21.9741L7.49165 18.1985C7.47134 18.1783 7.49165 18.1379 7.53226 18.1581C8.62888 18.9456 9.86766 19.3897 11.1471 19.5109C11.3501 19.5311 11.4517 19.2888 11.3095 19.1475L8.71011 16.5631C8.68982 16.5429 8.71011 16.5025 8.75074 16.5227C9.46151 17.0073 10.2738 17.2899 11.1064 17.3707C11.2486 17.3909 11.3298 17.2092 11.2283 17.1284L6.82149 12.7268C6.71996 12.6259 6.5575 12.7066 6.57781 12.848C6.65902 13.6758 6.94335 14.4834 7.43073 15.1901C7.45104 15.2103 7.41042 15.2507 7.3901 15.2305L4.89226 12.747C4.75011 12.6057 4.50641 12.7268 4.52672 12.9085C4.64856 14.1806 5.09533 15.4324 5.88734 16.5025C5.90765 16.5227 5.86702 16.5631 5.84673 16.5429L2.02886 12.7672C1.82578 12.5653 1.48055 12.7268 1.50086 13.0297C1.72424 15.3718 2.73963 17.6735 4.54703 19.4705ZM19.4529 19.4705C17.6456 21.2675 15.3305 22.277 12.9544 22.4991C12.6701 22.5193 12.5077 22.1761 12.7107 21.9741L16.5083 18.1985C16.5286 18.1783 16.5083 18.1379 16.4677 18.1581C15.3711 18.9456 14.1323 19.3897 12.8529 19.5109C12.6498 19.5311 12.5483 19.2888 12.6905 19.1475L15.2898 16.563C15.3102 16.5429 15.2898 16.5025 15.2492 16.5227C14.5384 17.0073 13.7261 17.2899 12.8935 17.3707C12.7514 17.3909 12.6701 17.2092 12.7717 17.1284L17.1785 12.747C17.28 12.6461 17.4425 12.7268 17.4222 12.8682C17.3409 13.696 17.0566 14.5036 16.5692 15.2103C16.5489 15.2305 16.5895 15.2709 16.6099 15.2507L19.1077 12.7672C19.2499 12.6259 19.4936 12.747 19.4732 12.9287C19.3717 14.1806 18.9249 15.4324 18.1329 16.5227C18.1126 16.5429 18.1532 16.5832 18.1735 16.563L21.9711 12.7874C22.1743 12.5855 22.5193 12.747 22.4992 13.0499C22.2756 15.3718 21.2603 17.6735 19.4529 19.4705Z" fill="currentColor"/></svg>

<svg xmlns="http://www.w3.org/2000/svg" fill="none" viewBox="0 0 24 24" width="1em" height="1em"><path fill="currentColor" d="M19.453 4.53a10.584 10.584 0 0 0-6.499-3.03c-.284-.02-.446.324-.243.526L16.508 5.8c.02.02 0 .061-.04.04a7.344 7.344 0 0 0-3.615-1.352c-.203-.02-.305.222-.162.364l2.599 2.584c.02.02 0 .06-.04.04a5.04 5.04 0 0 0-2.357-.848c-.142-.02-.223.162-.121.243l4.406 4.38a.142.142 0 0 0 .244-.12 4.975 4.975 0 0 0-.853-2.342c-.02-.02.02-.06.04-.04l2.499 2.483c.142.141.386.02.365-.162a6.968 6.968 0 0 0-1.34-3.574c-.02-.02.02-.06.04-.04l3.798 3.776c.203.202.548.04.528-.263a10.473 10.473 0 0 0-3.046-6.44Zm-14.906 0a10.585 10.585 0 0 1 6.499-3.03c.284-.02.446.324.243.526L7.492 5.8c-.02.02 0 .061.04.04a7.345 7.345 0 0 1 3.615-1.352c.203-.02.305.222.162.364L8.71 7.437c-.02.02 0 .06.04.04a5.04 5.04 0 0 1 2.356-.848c.143-.02.224.162.122.243l-4.407 4.401a.142.142 0 0 1-.243-.121A4.974 4.974 0 0 1 7.43 8.81c.02-.02-.02-.06-.04-.04l-2.499 2.483c-.142.141-.386.02-.365-.162a7.18 7.18 0 0 1 1.36-3.594c.02-.02-.02-.06-.04-.04l-3.818 3.776c-.203.202-.548.04-.528-.263a10.471 10.471 0 0 1 3.046-6.44Zm0 14.94a10.585 10.585 0 0 0 6.499 3.03c.284.02.446-.324.243-.526l-3.797-3.776c-.02-.02 0-.06.04-.04a7.344 7.344 0 0 0 3.615 1.353c.203.02.305-.222.162-.363L8.71 16.563c-.02-.02 0-.06.04-.04a5.04 5.04 0 0 0 2.356.848c.143.02.224-.162.122-.243l-4.407-4.401a.142.142 0 0 0-.243.121c.081.828.365 1.635.853 2.342.02.02-.02.06-.04.04l-2.499-2.483c-.142-.141-.386-.02-.365.162a7.18 7.18 0 0 0 1.36 3.594c.02.02-.02.06-.04.04l-3.818-3.776c-.203-.202-.548-.04-.528.263a10.471 10.471 0 0 0 3.046 6.44Zm14.906 0a10.584 10.584 0 0 1-6.499 3.03c-.284.02-.446-.324-.243-.526l3.797-3.776c.02-.02 0-.06-.04-.04a7.344 7.344 0 0 1-3.615 1.353c-.203.02-.305-.222-.162-.363l2.599-2.585c.02-.02 0-.06-.04-.04a5.04 5.04 0 0 1-2.357.848c-.142.02-.223-.162-.121-.243l4.406-4.381c.102-.1.264-.02.244.121a4.975 4.975 0 0 1-.853 2.342c-.02.02.02.06.04.04l2.499-2.483c.142-.141.386-.02.365.162a7.102 7.102 0 0 1-1.34 3.594c-.02.02.02.06.04.04l3.798-3.776c.203-.202.548-.04.528.263a10.472 10.472 0 0 1-3.046 6.42Z"/></svg>
